!!!OTL: SALVAI GLORIAI
!!!ARE: Europa, Mitteleuropa, Deutschland; France, Elsass
!!!SCT: E1258
!!!YEM: Copyright 1995, estate of Helmut Schaffrath.
**kern
*ICvox
*Ivox
*M2/4
*k[b-]
*F:
=1
{4cc
4a
=2
4cc
4a}
=3
{8cc
8cc
4a
=4
8cc
8cc
4a}
=5
{8.cc
16cc
8cc
8dd
=6
4cc
8a
16r}
{16b-
=7
4cc
8a
8b-
=8
4cc
8a}
{8f
=9
8cc
8cc
8cc
8dd
=10
4cc
8a
16r}
{16b-
=11
8.cc
16b-
8a
8b-
=12
8.cc
16b-
8a}
{8f
=13
8f
8g
8a
8b-
=14
8cc
16cc
16b-
8a}
{8cc
=15
4cc
8a
8cc
=16
4cc
8a}
{8g
=17
8cc
8cc
8cc
8dd
=18
4cc
8a}
{8f
=19
4cc
8r
8f
=20
4cc
8r}
{8cc
=21
8cc
8cc
8cc
8dd
=22
4cc
8r}
{8f
=23
4cc
8r
8f
=24
4cc
8r}
{8f
=25
8cc
8cc
8cc
8dd
=26
4cc
4r}
==
!!!AGN: Ansinge -, Brauchtums - Lied, Kirchen - Fest, Johannis - Tag
!!!ONB: ESAC (Essen Associative Code) Database: ERK3
!!!AMT: simple duple
!!!AIN: vox
!!!EED: Helmut Schaffrath
!!!EEV: 1.0
*-
